images_elementary_svg/cmd/32/ca/underline.svg

<svg height="32" width="32" xmlns="http://www.w3.org/2000/svg" xmlns:xlink="http://www.w3.org/1999/xlink"><radialGradient id="a" cx="10.903473" cy="14.502974" gradientTransform="matrix(-1.1900889 .07845656 -.1079118 -2.3049599 27.481767 44.455555)" gradientUnits="userSpaceOnUse" r="6.225339" xlink:href="#b"/><linearGradient id="b"><stop offset="0" stop-color="#555"/><stop offset="1" stop-color="#666"/></linearGradient><linearGradient id="c" gradientUnits="userSpaceOnUse" x1="12.761326" x2="12.761326" xlink:href="#b" y1="33.638302" y2="11.638302"/><g transform="matrix(1.33333 0 0 1.33333 .163341 -11.350962)"><path d="m15.677656 25.389889q0 1.043753-.376612 1.872299-.365852.817786-1.054513 1.388083-.688662.570298-1.678613.871588-.989951.290529-2.22739.290529-1.1943979 0-2.2381508-.193686-1.0329925-.182926-1.7324146-.548777v-1.915341q.3658516.172166.8285461.344331.473455.161405.9899512.290529.5164963.129124 1.0652736.215207.5487773.07532 1.0867945.07532 1.721654 0 2.53944-.645621.828546-.64562.828546-1.850778 0-.581058-.161405-1.011472-.150645-.430411-.548778-.785502-.387372-.365851-1.043752-.699422-.656381-.344331-1.657093-.742463-.9576698-.376612-1.6678522-.817786-.699422-.451934-1.1621166-1.011472-.4519342-.559537-.6779013-1.26972-.2152068-.710182-.2152068-1.614051 0-.946909.3443308-1.689373.3443309-.742463.9684305-1.248199.6240997-.516496 1.4849268-.785505.8715878-.269008 1.9153408-.269008 1.28048 0 2.302712.247487 1.022232.236728 1.818497.61334l-.720942 1.678613q-.699422-.31205-1.59253-.538017-.882348-.236728-1.829258-.236728-1.3127615 0-2.0337042.61334-.7209427.602579-.7209427 1.635571 0 .613339.1614051 1.065274.1614051.441174.5380169.807025.3766119.355091.9899509.677901.6241.31205 1.527968.667141.979191.387373 1.710894.796265.742464.408893 1.237439.92539.494976.516496.742464 1.194397.258248.677902.258248 1.603291z" fill="url(#a)" stroke="#000" stroke-opacity=".6" stroke-width=".750002" transform="scale(1.0774428 .9281235)"/><path d="m1.752716 29.885566.017578 2.234376h19.504467l-.01758-2.234376z" fill="url(#c)"/><path d="m1.752716 29.885566.00414 2.252736h19.50447l-.0041-2.252736z" fill="none" opacity=".61" stroke="#000" stroke-width=".750002"/><g fill="#fff"><path d="m2.1302176 30.242557-.00272.769013h18.7500494l-.01548-.759479z" opacity=".2"/><path d="m16.378906 5.5273438c-.999627 0-1.917212.1120532-2.751953.3339843-.824435.2219311-1.535097.5445955-2.132812.9707031-.597716.4172305-1.060851.9323922-1.390625 1.5449219-.3297745.6125298-.4960941 1.3105995-.4960941 2.0917969 0 .274451.0287208.526491.0566406.779297.0717216-.494776.2151034-.954382.4394535-1.3710939.329774-.6125298.792909-1.1276914 1.390625-1.5449219.597715-.4261076 1.308377-.748772 2.132812-.9707031.834741-.2219311 1.752326-.3339843 2.751953-.3339843 1.226348 0 2.329577.102464 3.308594.3066406.723765.1443803 1.367169.3316103 1.972656.5390625l.638672-1.2792969c-.762602-.3107035-1.632311-.5644663-2.611328-.7597656-.979017-.2041766-2.082246-.3066407-3.308594-.3066406zm-3.898437 5.7890622c-.055454.212997-.089844.43622-.089844.677735 0 .506002.07784.945515.232422 1.318359.154581.363967.410794.698174.771484 1 .360691.292949.836418.571573 1.423828.837891.597716.25744 1.327703.533222 2.19336.826171.937795.319581 1.758214.64704 2.458984.984376.711076.337335 1.303294.720376 1.777344 1.146484s.829381.917296 1.066406 1.476562c.165268.373705.255712.810522.310547 1.275391.036428-.255721.060547-.517364.060547-.791016 0-.763443-.123763-1.425108-.371094-1.984375-.237025-.559266-.592356-1.050454-1.066406-1.476562s-1.066268-.809149-1.777344-1.146484c-.70077-.337336-1.521189-.664795-2.458984-.984376-.865657-.292949-1.595644-.568731-2.19336-.826171-.58741-.266318-1.063137-.544942-1.423828-.837891-.36069-.301826-.616903-.636033-.771484-1-.062958-.151853-.105262-.322153-.142578-.496094zm7.291015 9.728516c-.153973.642755-.520994 1.16237-1.105468 1.554687-.783214.532635-1.999567.798829-3.648438.798829-.515272 0-1.034969-.03161-1.560547-.09375-.525577-.071018-1.034635-.159099-1.529297-.265626-.494661-.106526-.970388-.226216-1.423828-.359374-.443134-.142036-.8390679-.285699-1.1894529-.427735v1.5c.350385.142036.7463189.285699 1.1894529.427735.45344.133158.929167.252848 1.423828.359374.494662.106527 1.00372.194608 1.529297.265626.525578.06214 1.045275.09375 1.560547.09375 1.648871 0 2.865224-.266194 3.648438-.798829.793519-.532634 1.191406-1.296764 1.191406-2.291015 0-.277597-.0341-.527752-.085938-.763672z" opacity=".1" transform="matrix(.75000188 0 0 .75000188 -.122506 8.513243)"/></g></g></svg>

<?xml version="1.0" encoding="UTF-8" standalone="no"?>
<svg
   xmlns:dc="http://purl.org/dc/elements/1.1/"
   xmlns:cc="http://creativecommons.org/ns#"
   xmlns:rdf="http://www.w3.org/1999/02/22-rdf-syntax-ns#"
   xmlns:svg="http://www.w3.org/2000/svg"
   xmlns="http://www.w3.org/2000/svg"
   xmlns:xlink="http://www.w3.org/1999/xlink"
   xmlns:sodipodi="http://sodipodi.sourceforge.net/DTD/sodipodi-0.dtd"
   xmlns:inkscape="http://www.inkscape.org/namespaces/inkscape"
   height="32"
   width="32"
   version="1.1"
   id="svg43"
   sodipodi:docname="underline.svg"
   inkscape:version="0.92.4 (unknown)"
   inkscape:export-filename="/home/rizmut/Dokumen/Rizmut/Github/libreoffice-style-elementary/images_elementary/cmd/32/ca/underline.png"
   inkscape:export-xdpi="96"
   inkscape:export-ydpi="96">
  <metadata
     id="metadata49">
    <rdf:RDF>
      <cc:Work
         rdf:about="">
        <dc:format>image/svg+xml</dc:format>
        <dc:type
           rdf:resource="http://purl.org/dc/dcmitype/StillImage" />
        <dc:title />
      </cc:Work>
    </rdf:RDF>
  </metadata>
  <defs
     id="defs47">
    <radialGradient
       inkscape:collect="always"
       xlink:href="#a"
       id="radialGradient844"
       cx="10.903473"
       cy="14.502974"
       fx="10.903473"
       fy="14.502974"
       r="6.2253389"
       gradientTransform="matrix(-1.1900889,0.07845656,-0.1079118,-2.3049599,27.481767,44.455555)"
       gradientUnits="userSpaceOnUse" />
  </defs>
  <sodipodi:namedview
     pagecolor="#ffffff"
     bordercolor="#666666"
     borderopacity="1"
     objecttolerance="10"
     gridtolerance="10"
     guidetolerance="10"
     inkscape:pageopacity="0"
     inkscape:pageshadow="2"
     inkscape:window-width="1366"
     inkscape:window-height="714"
     id="namedview45"
     showgrid="true"
     inkscape:zoom="22.627417"
     inkscape:cx="12.835155"
     inkscape:cy="17.967704"
     inkscape:window-x="0"
     inkscape:window-y="28"
     inkscape:window-maximized="1"
     inkscape:current-layer="g41">
    <inkscape:grid
       type="xygrid"
       id="grid832" />
  </sodipodi:namedview>
  <linearGradient
     id="a">
    <stop
       offset="0"
       stop-color="#555"
       id="stop2" />
    <stop
       offset="1"
       stop-color="#666"
       id="stop4" />
  </linearGradient>
  <linearGradient
     id="b"
     gradientUnits="userSpaceOnUse"
     x1="12.761326"
     x2="12.761326"
     xlink:href="#a"
     y1="33.638302"
     y2="11.638302" />
  <linearGradient
     id="c">
    <stop
       offset="0"
       id="stop8" />
    <stop
       offset="1"
       stop-opacity="0"
       id="stop10" />
  </linearGradient>
  <radialGradient
     id="d"
     cx="40"
     cy="43.5"
     gradientTransform="matrix(.87733142 0 0 .75 -17.142285 -3.625)"
     gradientUnits="userSpaceOnUse"
     r="2"
     xlink:href="#c" />
  <radialGradient
     id="e"
     cx="9"
     cy="43.5"
     gradientTransform="matrix(.87733142 0 0 .75 -1.350319 -3.625)"
     gradientUnits="userSpaceOnUse"
     r="2"
     xlink:href="#c" />
  <linearGradient
     id="f"
     gradientTransform="matrix(.87733142 0 0 1 -5.736976 -14.5)"
     gradientUnits="userSpaceOnUse"
     x1="25"
     x2="25"
     y1="45"
     y2="42">
    <stop
       offset="0"
       stop-opacity="0"
       id="stop15" />
    <stop
       offset=".5"
       id="stop17" />
    <stop
       offset="1"
       stop-opacity="0"
       id="stop19" />
  </linearGradient>
  <linearGradient
     id="g"
     gradientTransform="matrix(.98244026 0 0 1.0032268 .121605 8.047357)"
     gradientUnits="userSpaceOnUse"
     x1="12.02772"
     x2="11.427851"
     xlink:href="#a"
     y1="25.544678"
     y2="4.392136" />
  <g
     transform="matrix(1.33333 0 0 1.33333 .163341 -11.350962)"
     id="g41">
    <g
       aria-label="S"
       transform="scale(1.0774428,0.9281235)"
       style="font-style:normal;font-weight:normal;font-size:22.03717422px;line-height:1.25;font-family:sans-serif;letter-spacing:0px;word-spacing:0px;fill:url(#radialGradient844);fill-opacity:1;stroke:#000000;stroke-width:0.75000191;stroke-miterlimit:4;stroke-dasharray:none;stroke-opacity:0.6"
       id="text836">
      <path
         d="m 15.677656,25.389889 q 0,1.043753 -0.376612,1.872299 -0.365852,0.817786 -1.054513,1.388083 -0.688662,0.570298 -1.678613,0.871588 -0.989951,0.290529 -2.22739,0.290529 -1.1943979,0 -2.2381508,-0.193686 -1.0329925,-0.182926 -1.7324146,-0.548777 v -1.915341 q 0.3658516,0.172166 0.8285461,0.344331 0.473455,0.161405 0.9899512,0.290529 0.5164963,0.129124 1.0652736,0.215207 0.5487773,0.07532 1.0867945,0.07532 1.721654,0 2.53944,-0.645621 0.828546,-0.64562 0.828546,-1.850778 0,-0.581058 -0.161405,-1.011472 Q 13.396464,24.141689 12.998331,23.786598 12.610959,23.420747 11.954579,23.087176 11.298198,22.742845 10.297486,22.344713 9.3398162,21.968101 8.6296338,21.526927 7.9302118,21.074993 7.4675172,20.515455 7.015583,19.955918 6.7896159,19.245735 6.5744091,18.535553 6.5744091,17.631684 q 0,-0.946909 0.3443308,-1.689373 0.3443309,-0.742463 0.9684305,-1.248199 0.6240997,-0.516496 1.4849268,-0.785505 0.8715878,-0.269008 1.9153408,-0.269008 1.28048,0 2.302712,0.247487 1.022232,0.236728 1.818497,0.61334 l -0.720942,1.678613 q -0.699422,-0.31205 -1.59253,-0.538017 -0.882348,-0.236728 -1.829258,-0.236728 -1.3127615,0 -2.0337042,0.61334 -0.7209427,0.602579 -0.7209427,1.635571 0,0.613339 0.1614051,1.065274 0.1614051,0.441174 0.5380169,0.807025 0.3766119,0.355091 0.9899509,0.677901 0.6241,0.31205 1.527968,0.667141 0.979191,0.387373 1.710894,0.796265 0.742464,0.408893 1.237439,0.92539 0.494976,0.516496 0.742464,1.194397 0.258248,0.677902 0.258248,1.603291 z"
         style="font-style:normal;font-variant:normal;font-weight:normal;font-stretch:normal;font-family:'Droid Sans';-inkscape-font-specification:'Droid Sans';fill:url(#radialGradient844);fill-opacity:1;stroke:#000000;stroke-width:0.75000191;stroke-miterlimit:4;stroke-dasharray:none;stroke-opacity:0.6"
         id="path837" />
    </g>
    <path
       d="m1.752716 29.885566.017578 2.234376h19.504467l-.01758-2.234376z"
       fill="url(#b)"
       id="path25" />
    <path
       d="m1.752716 29.885566.00414 2.252736h19.50447l-.0041-2.252736z"
       fill="none"
       opacity=".61"
       stroke="#000"
       stroke-width=".750002"
       id="path27" />
    <path
       d="m2.1302176 30.242557-.00272.769013h18.7500494l-.01548-.759479z"
       fill="#fff"
       opacity=".2"
       id="path29" />
    <path
       style="font-style:normal;font-weight:normal;font-size:22.03717422px;line-height:1.25;font-family:sans-serif;letter-spacing:0px;word-spacing:0px;fill:#ffffff;fill-opacity:1;stroke:none;stroke-width:1;stroke-miterlimit:4;stroke-dasharray:none;stroke-opacity:0.6;opacity:0.1"
       d="M 16.378906 5.5273438 C 15.379279 5.5273438 14.461694 5.639397 13.626953 5.8613281 C 12.802518 6.0832592 12.091856 6.4059236 11.494141 6.8320312 C 10.896425 7.2492617 10.43329 7.7644234 10.103516 8.3769531 C 9.7737415 8.9894829 9.6074219 9.6875526 9.6074219 10.46875 C 9.6074219 10.743201 9.6361427 10.995241 9.6640625 11.248047 C 9.7357841 10.753271 9.8791659 10.293665 10.103516 9.8769531 C 10.43329 9.2644233 10.896425 8.7492617 11.494141 8.3320312 C 12.091856 7.9059236 12.802518 7.5832592 13.626953 7.3613281 C 14.461694 7.139397 15.379279 7.0273438 16.378906 7.0273438 C 17.605254 7.0273438 18.708483 7.1298078 19.6875 7.3339844 C 20.411265 7.4783647 21.054669 7.6655947 21.660156 7.8730469 L 22.298828 6.59375 C 21.536226 6.2830465 20.666517 6.0292837 19.6875 5.8339844 C 18.708483 5.6298078 17.605254 5.5273437 16.378906 5.5273438 z M 12.480469 11.316406 C 12.425015 11.529403 12.390625 11.752626 12.390625 11.994141 C 12.390625 12.500143 12.468465 12.939656 12.623047 13.3125 C 12.777628 13.676467 13.033841 14.010674 13.394531 14.3125 C 13.755222 14.605449 14.230949 14.884073 14.818359 15.150391 C 15.416075 15.407831 16.146062 15.683613 17.011719 15.976562 C 17.949514 16.296143 18.769933 16.623602 19.470703 16.960938 C 20.181779 17.298273 20.773997 17.681314 21.248047 18.107422 C 21.722097 18.53353 22.077428 19.024718 22.314453 19.583984 C 22.479721 19.957689 22.570165 20.394506 22.625 20.859375 C 22.661428 20.603654 22.685547 20.342011 22.685547 20.068359 C 22.685547 19.304916 22.561784 18.643251 22.314453 18.083984 C 22.077428 17.524718 21.722097 17.03353 21.248047 16.607422 C 20.773997 16.181314 20.181779 15.798273 19.470703 15.460938 C 18.769933 15.123602 17.949514 14.796143 17.011719 14.476562 C 16.146062 14.183613 15.416075 13.907831 14.818359 13.650391 C 14.230949 13.384073 13.755222 13.105449 13.394531 12.8125 C 13.033841 12.510674 12.777628 12.176467 12.623047 11.8125 C 12.560089 11.660647 12.517785 11.490347 12.480469 11.316406 z M 19.771484 21.044922 C 19.617511 21.687677 19.25049 22.207292 18.666016 22.599609 C 17.882802 23.132244 16.666449 23.398438 15.017578 23.398438 C 14.502306 23.398438 13.982609 23.366828 13.457031 23.304688 C 12.931454 23.23367 12.422396 23.145589 11.927734 23.039062 C 11.433073 22.932536 10.957346 22.812846 10.503906 22.679688 C 10.060772 22.537652 9.6648381 22.393989 9.3144531 22.251953 L 9.3144531 23.751953 C 9.6648381 23.893989 10.060772 24.037652 10.503906 24.179688 C 10.957346 24.312846 11.433073 24.432536 11.927734 24.539062 C 12.422396 24.645589 12.931454 24.73367 13.457031 24.804688 C 13.982609 24.866828 14.502306 24.898438 15.017578 24.898438 C 16.666449 24.898438 17.882802 24.632244 18.666016 24.099609 C 19.459535 23.566975 19.857422 22.802845 19.857422 21.808594 C 19.857422 21.530997 19.823322 21.280842 19.771484 21.044922 z "
       transform="matrix(0.75000188,0,0,0.75000188,-0.12250606,8.5132428)"
       id="text964" />
  </g>
</svg>
